images/icons/twit.svg

<svg width="16" height="14" viewBox="0 0 16 14" fill="none" xmlns="http://www.w3.org/2000/svg">
<path d="M15.8952 2.28024C15.3051 2.53406 14.7148 2.69258 14.125 2.75625C14.7912 2.35651 15.2418 1.79179 15.4767 1.06212C14.8672 1.42372 14.2169 1.67111 13.5254 1.80442C12.9162 1.15723 12.1676 0.833496 11.2791 0.833496C10.4289 0.833496 9.70414 1.13326 9.10422 1.73291C8.50472 2.33254 8.20492 3.05741 8.20492 3.90763C8.20492 4.13601 8.23026 4.37087 8.28106 4.61196C7.02468 4.54852 5.84609 4.23286 4.74513 3.66497C3.64422 3.09701 2.70989 2.34035 1.94216 1.39495C1.66296 1.87073 1.52332 2.38795 1.52332 2.9463C1.52332 3.47295 1.64703 3.9616 1.89462 4.41211C2.14204 4.86255 2.47524 5.22735 2.89404 5.50658C2.39904 5.48751 1.93585 5.3574 1.50445 5.11628V5.15435C1.50445 5.89679 1.73763 6.54862 2.20395 7.11034C2.67033 7.672 3.25889 8.02553 3.96949 8.17154C3.70296 8.24125 3.43324 8.27615 3.16044 8.27615C2.98275 8.27615 2.7892 8.26031 2.57985 8.22881C2.77654 8.84417 3.13824 9.35 3.66482 9.74683C4.1915 10.1433 4.78796 10.3477 5.45423 10.3607C4.33752 11.2362 3.06533 11.674 1.63766 11.674C1.36477 11.674 1.11738 11.6616 0.895264 11.6361C2.32296 12.556 3.89654 13.016 5.61611 13.016C6.70748 13.016 7.73224 12.8432 8.69005 12.4973C9.64839 12.1517 10.4668 11.6884 11.1458 11.1077C11.8246 10.5272 12.41 9.85933 12.9018 9.10426C13.3934 8.34916 13.7598 7.56085 14.0011 6.73917C14.2421 5.91732 14.3627 5.09421 14.3627 4.2692C14.3627 4.09151 14.3595 3.95833 14.3531 3.86945C14.9561 3.43185 15.47 2.90193 15.8952 2.28024Z" fill="#C3C3C3"/>
</svg>

<svg width="16" height="14" fill="none" xmlns="http://www.w3.org/2000/svg"><path d="M15.895 2.28c-.59.254-1.18.413-1.77.476a2.986 2.986 0 001.352-1.694 6 6 0 01-1.952.742 2.964 2.964 0 00-2.246-.97c-.85 0-1.575.3-2.175.899-.6.6-.9 1.324-.9 2.175 0 .228.026.463.077.704a8.566 8.566 0 01-3.536-.947 8.715 8.715 0 01-2.803-2.27 3.014 3.014 0 00-.419 1.551c0 .527.124 1.016.372 1.466.247.45.58.815.999 1.095a3.05 3.05 0 01-1.39-.39v.037c0 .743.234 1.395.7 1.956a3.024 3.024 0 001.765 1.062c-.266.07-.536.104-.809.104-.177 0-.37-.016-.58-.047a3.009 3.009 0 001.085 1.518 3 3 0 001.79.614 6.02 6.02 0 01-3.817 1.313c-.273 0-.52-.012-.743-.038a8.538 8.538 0 004.721 1.38 8.982 8.982 0 003.074-.519c.958-.345 1.777-.809 2.456-1.39a9.3 9.3 0 001.756-2.003 8.936 8.936 0 001.1-2.365 8.738 8.738 0 00.351-2.87 6.438 6.438 0 001.542-1.589z" fill="#C3C3C3"/></svg>
